cssgg/chevron-double-left-o.svg

<svg
  width="24"
  height="24"
  viewBox="0 0 24 24"
  fill="none"
  xmlns="http://www.w3.org/2000/svg"
>
  <path
    d="M12.7071 9.1716L11.2929 7.75739L7.05024 12L11.2929 16.2426L12.7071 14.8284L9.87869 12L12.7071 9.1716Z"
    fill="currentColor"
  />
  <path
    d="M15.5355 7.75739L16.9497 9.1716L14.1213 12L16.9497 14.8284L15.5355 16.2426L11.2929 12L15.5355 7.75739Z"
    fill="currentColor"
  />
  <path
    fill-rule="evenodd"
    clip-rule="evenodd"
    d="M23 12C23 18.0751 18.0751 23 12 23C5.92487 23 1 18.0751 1 12C1 5.92487 5.92487 1 12 1C18.0751 1 23 5.92487 23 12ZM21 12C21 16.9706 16.9706 21 12 21C7.02944 21 3 16.9706 3 12C3 7.02944 7.02944 3 12 3C16.9706 3 21 7.02944 21 12Z"
    fill="currentColor"
  />
</svg>

<svg viewBox="0 0 24 24" xmlns="http://www.w3.org/2000/svg"><g><path d="M12.7 9.17l-1.42-1.42 -4.25 4.24 4.24 4.24 1.41-1.42 -2.83-2.83 2.82-2.83Z"/><path d="M15.53 7.75l1.41 1.41 -2.83 2.82 2.82 2.82 -1.42 1.41 -4.25-4.25 4.24-4.25Z"/><path fill-rule="evenodd" d="M23 12c0 6.07-4.93 11-11 11C5.92 23 1 18.07 1 12 1 5.92 5.92 1 12 1c6.07 0 11 4.92 11 11Zm-2 0c0 4.97-4.03 9-9 9 -4.98 0-9-4.03-9-9 0-4.98 4.02-9 9-9 4.97 0 9 4.02 9 9Z"/></g></svg>
